!!!SOCIAL_FUNCTION: Mandan Garden Songs
!!!PDT:	1923
!!!LANG: Non-Tone
!!!LING_GROUP: Siouan
!!!REG: Dakotas
!!!COM: Anon.
!!!OTL: The Corn is My Pleasure
!!!ODT: <1918//
!!!MPN: Wopite [Scattered Corn, Mrs. Holding Eagle]
!!!MLC: Fort Berthold Reservation, North Dakota, United States of America
!! Song was recorded during either the summer of 1912, 1915, or 1918.
!!!AGN: monody
!!!AMT: irregular
!!!RWG: Transcribed pitches, durations, and meters are only approximate.
!! Drum not recorded.
**kern
*ICvox
*Ifemale
*clefG2
*k[f#c#g#]
*M2/4
*MM60
8.f#
16f#
=1
(4..a
16f#)
=2
16a
8.a
16b
8.a
*M3/4
=3
8f#
8a
16a
8.f#
16f#
8.e#
*M3/4
=4
16c#
8.c#
4.e^
8c#
=5
4f#
8.f#
16f#
4f#
*M2/4
=6
8.f#
16f#
8f#
16g#
16f#
=7
8.e
16e
4c#
=8
2c#
=9
4..r
16f#
=10
4f#
8.a
16a
*M3/4
=11
8f#
8a
16a
8.f#
16f#
8e#
16f#
=12
8.c#
16f#
4f#
16f#
8e#
16f#
=13
4c#
2c#
==
*-
!!!CNT: Mandan
!!!TXO: Mandan
!!!OCY: United States
!!!OCL: Frances Densmore
!!!YOR: Frances Densmore, "Mandan and Hidatsa Music",
!!!YOR: Bulletin 80, page 54, No. 12
!!!PPR: Smithsonian Institution, Bureau of American Ethnology
!!!PPR: Government Printing Office
!!!PDT: 1923
!!!PPP: Washington, DC, United States of America
!!!YEC: Electronic Copyright 2000 David Huron
!!!YER: August 2000
!!!YEN: United States of America
!!!ENC: David Huron
!!!RDT: August 16, 2000
!!!EEV: Release 1.0
!!!AIN: tom, vox
